X: 21052
T: YES, OR NO! -- Valse 2
C: By R. M. Taylor
B: K\"ohler's Violin Repository, v.2, 1885 p.105 #2
F: http://www.archive.org/details/klersviolinrepos02rugg
Z: 2012 John Chambers <jc:trillian.mit.edu>
M: 3/4
L: 1/8
K: D
[|\
v"^>"f6 | "^>"f6 | "^>"f6 | "^>"B6 | "^>"e6 | "^>"e6 | "^>"e6 | "^>"A6 |\
d6- | d2(c2B2) | A6- | A2(F2D2) | D6 | (C4D2) | ^D6 | E6 |
f6 | f6 | f6 | B6 | e6 | e6 | e6 | A6 |\
d6- | d2(c2B2) | A6- | A2(F2D2) | F6 | E6 | D6- | D2z2z2 ||
|: vf6 | (e4d2) | ^g6 | a6 | d'6 | (a4f2) | ^d6 | e6 |\
f6 | (e4d2) | ^g6 | a6 | d'6 | (b2g2e2) |1 c6 | d6 :|2 d6- | d2z2"^D.C."z2 |]

%%sep 2 1 500

